!!!!SEGMENT: pl-kk--kk-i-28--003_anonim--missa-de-adventu-domini-sanctus.krn
!!!cenid: 17xx:2225
!!!COM: Anonim
!!!COM-rismid: pe30004985
!!!CDT:
!!!CNT:
!!!OPR: Missa De Adventu Domini
!!!OTL: Sanctus
!!!OMV: 003
!!!PDT:
!!!AGN: Sacred; Mass
!!!SMS-siglum: PL-Kk
!!!SMS-shelfmark: Kk.I.28
!!!SMS-shelfwork: 001-003 M
!!!SMS-variant:
!!!SMS-altvar:
!!!NIFC-rismid: 1001156098
!!!URL-scan: http://repozytorium.nifc.pl/skany/pl-kk-nut--i-28
!!!ONB-nifc: UWAGA: części Mszy: 1. Kyrie, 2. Et in terra, 3. Sanctus, 4. Agnus Dei.
!!!AIN: 1 alto 1 empty 1 tenor 1 vox
!!!key:
**kern	**text	**kern	**text	**kern	**text	**kern	**text
*part4	*part4	*part3	*part3	*part2	*part2	*part1	*part1
*staff4	*staff4	*staff3	*staff3	*staff2	*staff2	*staff1	*staff1
*Iempty	*	*Itenor	*	*Ialto	*	*Ivox	*
*I"Baſso.	*	*I"Tenore	*	*I"Alto.	*	*I"Canto.	*
*I'B	*	*I'T	*	*I'A	*	*I'S	*
*clefF4	*	*clefC4	*	*clefC3	*	*clefC1	*
*k[b-]	*	*k[b-]	*	*k[b-]	*	*k[b-]	*
*F:	*	*F:	*	*F:	*	*F:	*
*M2/1	*	*M2/1	*	*M2/1	*	*M2/1	*
*met(c|)	*	*met(c|)	*	*met(c|)	*	*met(c|)	*
*2\right	*	*2\right	*	*2\right	*	*2\right	*
=1	=1	=1	=1	=1	=1	=1	=1
!!LO:TX:t=P:problem:w paru taktach bardzo słabe wyświetlanie spowodowane różnym rozmieszczeniem kresek taktowych w poszczególnych księgach głosowych
!LO:TX:t=P:bemole:BB-,B-:problem	!	!	!	!LO:TX:t=P:problem=kreska pseudotaktowa	!	!LO:TX:t=P:global:problem=oddech/cezura na różnej wysokości	!
1.F	San-	00r	.	0r	.	00r	.
!LO:TX:t=P:problem=kreska pseudotaktowa	!	!	!	!	!	!	!
!LO:TX:t=P:problem=2\right&colon; global	!	!	!	!	!	!	!
2E\	.	.	.	.	.	.	.
=2	=2	=2	=2	=2	=2	=2-	=2
!	!	!LO:TX:t=P:problem=kreska pseudotaktowa	!	!	!	!	!
2.D/	.	.	.	1.f	San-	.	.
4C/	.	.	.	.	.	.	.
2BBn/	.	.	.	.	.	.	.
!	!	!	!	!LO:TX:t=P:problem=kreska pseudotaktowa	!	!	!
!LO:TX:t=P:problem=kreska pseudotaktowa	!	!	!	!LO:TX:t=P:problem=2\right&colon; global	!	!	!
2C/	.	.	.	2e\	.	.	.
=3	=3	=3	=3	=3	=3	=3-	=3
2GG,/	-ctus	1.B-	San-	1d	.	00r	.
4G\	San-	.	.	.	.	.	.
4F\	.	.	.	.	.	.	.
2E\	.	.	.	2c,\	-ct(us)	.	.
!	!	!LO:TX:t=P:problem=kreska pseudotaktowa	!	!	!	!	!
!LO:TX:t=P:problem=kreska pseudotaktowa	!	!LO:TX:t=P:problem=2\right&colon; global	!	!	!	!	!
2F\	.	2A\	.	4d\	San-	.	.
!	!	!	!	!LO:TX:t=P:problem=kreska pseudotaktowa	!	!	!
.	.	.	.	4c\	.	.	.
=4	=4	=4	=4	=4	=4	=4-	=4
!	!	!LO:TX:t=P:problem=kreska pseudotaktowa	!	!	!	!LO:TX:t=P:problem=kreska pseudotaktowa	!
2BB-/	.	1G	.	2d\	.	.	.
2C/	-ctus	.	.	2e\	.	.	.
!	!	!LO:TX:t=P:problem=kreska pseudotaktowa	!	!LO:TX:t=P:problem=kreska pseudotaktowa	!	!	!
2F\	.	1A	.	1f	.	.	.
4AA/	.	.	.	.	.	.	.
4FF/	.	.	.	.	.	.	.
=5	=5	=5	=5	=5	=5	=5	=5
2.BB-/	San-	2F/	-ctus	4d\	.	1.b-	San-
.	.	.	.	4c\	.	.	.
!	!	!LO:TX:t=P:problem=kreska pseudotaktowa	!	!	!	!	!
.	.	2r	.	4d\	.	.	.
4C/	.	.	.	4e\	.	.	.
4D\	.	4F/	San-	4f\	.	.	.
4E\	.	4G/	.	8e\L	.	.	.
.	.	.	.	8d\J	.	.	.
!	!	!	!	!	!	!LO:TX:t=P:problem=2\right&colon; global	!
1F\	.	4A/	.	4c\	.	2a\	.
!	!	!LO:TX:t=P:problem=kreska pseudotaktowa	!	!LO:TX:t=P:problem=kreska pseudotaktowa	!	!	!
.	.	4B-/	.	4d\	.	.	.
=6-	=6	=6	=6	=6	=6	=6-	=6
.	.	2.c\	.	4A/	.	1g	.
.	.	.	.	4F/	.	.	.
!LO:TX:t=P:problem=kreska pseudotaktowa	!	!	!	!	!	!	!
2E\	.	.	.	2g\	.	.	.
!	!	!LO:TX:t=P:problem=kreska pseudotaktowa	!	!	!	!	!
.	.	4B-\	.	.	.	.	.
!	!	!	!	!	!	!LO:TX:t=P:problem=kreska pseudotaktowa	!
4F\	.	2A\	.	2c\	.	1a	.
4E\	.	.	.	.	.	.	.
4D/	.	4B-\	.	4f\	.	.	.
!	!	!LO:TX:t=P:problem=kreska pseudotaktowa	!	!LO:TX:t=P:problem=kreska pseudotaktowa	!	!	!
4C/	.	4c\	.	4e\	.	.	.
=7-	=7	=7	=7	=7	=7	=7	=7
4BB-/	.	2d\	.	2d\	.	1g,	-ctus
4GG/	.	.	.	.	.	.	.
!LO:TX:t=P:problem=kreska pseudotaktowa	!	!	!	!	!	!	!
2C/	-ctus	4c\	.	4e\	.	.	.
!	!	!LO:TX:t=P:problem=kreska pseudotaktowa	!	!	!	!	!
.	.	4B-\	.	4c/	.	.	.
*	*ij	*	*	*	*	*	*
2FF/	San-	2A/	.	2c\	.	1.f	San-
!	!	!	!	!LO:TX:t=P:problem=kreska pseudotaktowa	!	!	!
4AA/	.	4G/	.	2d\	.	.	.
4BB-/	.	4F/	.	.	.	.	.
=8	=8	=8-	=8	=8	=8	=8-	=8
!LO:TX:t=P:problem=kreska pseudotaktowa	!	!	!	!	!	!	!
1C	.	2c\	-ctus	1c	.	.	.
!	!	!LO:TX:t=P:problem=kreska pseudotaktowa	!	!	!	!LO:TX:t=P:problem=kreska pseudotaktowa	!
.	.	2r	.	.	.	2e/	.
2FF/	-ctus	2r	.	2c,\	-ctus	2f,/	-ct(us)
*	*Xij	*	*	*	*	*	*
2.F\	Do-	2.c\	Do-	2.f\	Do-	2.a\	Do-
=9	=9-	=9-	=9	=9-	=9	=9-	=9
.	.	.	.	.	.	.	.
4F\	-mi-	4c\	-mi-	4f\	-mi-	4a\	-mi-
*custos:D	*	*	*	*	*	*	*
!LO:TX:t=P:problem=kreska pseudotaktowa	!	!	!	!	!	!	!
!	!	!LO:TX:t=P:problem=kreska pseudotaktowa	!	!LO:TX:t=P:problem=kreska pseudotaktowa	!	!LO:TX:t=P:problem=kreska pseudotaktowa	!
2F\	-n(us)	2c\	-n(us)	2f\	-n(us)	2a\	-n(us)
!LO:LB:g=original	!	!	!	!	!	!	!
2D/	De-	2d\	De-	2f\	DE-	2a\	De-
!	!	!LO:TX:t=P:problem=kreska pseudotaktowa	!	!	!	!LO:TX:t=P:problem=kreska pseudotaktowa	!
2C#X/	-us	2A\	-us	2e\	-(us)	2a\	-us
=10-	=10	=10	=10	=10-	=10	=10	=10
2.D/	Sab-	4A/	Sab-	4d\	Sab-	4f/	Sab-
.	.	4G/	.	4e\	.	4g/	.
.	.	4F/	.	4f\	.	4a/	.
!LO:TX:t=P:problem=kreska pseudotaktowa	!	!LO:TX:t=P:problem=kreska pseudotaktowa	!	!LO:TX:t=P:problem=kreska pseudotaktowa	!	!	!
4C/	.	4E/	.	4c\	.	8g/L	.
.	.	.	.	.	.	8a/J	.
2BB-/	.	2F/	.	2.d\	.	2.b-\	.
4GG/	.	4B-\	.	.	.	.	.
4AA/	.	4c\	.	4d\	-ba-	8a\L	.
.	.	.	.	.	.	8g\J	.
=11-	=11	=11-	=11	=11-	=11	=11-	=11
4BB-/	.	2.d\	.	2d\	-oth	2.f/	.
4C/	.	.	.	.	.	.	.
!	!	!	!	!LO:TX:t=P:problem=kreska pseudotaktowa	!	!	!
4D/	.	.	.	2r	.	.	.
*	*	*custos:c	*	*	*	*custos:a	*
!	!	!LO:TX:t=P:problem=kreska pseudotaktowa	!	!	!	!LO:TX:t=P:problem=kreska pseudotaktowa	!
!LO:TX:t=P:problem=kreska pseudotaktowa	!	!	!	!	!	!	!
4E/	.	4d\	-ba-	.	.	4g/	.
!	!	!LO:LB:g=original	!	!LO:PB:g=original	!	!	!
!	!	!	!	!	!	!LO:LB:g=original	!
2.F\	.	2c\	-oth	2.f\	Do-	4a\	.
.	.	.	.	.	.	4b-\	.
!	!	!LO:TX:t=P:problem=kreska pseudotaktowa	!	!	!	!	!
.	.	2r	.	.	.	4cc\	.
!	!	!	!	!LO:TX:t=P:problem=kreska pseudotaktowa	!	!	!
4E\	.	.	.	4g\	-mi-	4cc\	-ba-
=12-	=12	=12	=12	=12	=12	=12-	=12
2D/	.	2A\	De-	2f\	-n(us)	2f/	-oth.
!LO:TX:t=P:problem=kreska pseudotaktowa	!	!LO:TX:t=P:problem=kreska pseudotaktowa	!	!LO:TX:t=P:problem=kreska pseudotaktowa	!	!LO:TX:t=P:problem=kreska pseudotaktowa	!
2C/	.	2c\	-us	2e\	De-	2r	.
1BB-X	.	4d\	Sab-	4d\	-us	(4b-\	DE-
.	.	4c\	.	4e\	.	4cc\)	.
.	.	4B-\	.	1f\	Sab-	2dd\	-(us)
!	!	!LO:TX:t=P:problem=kreska pseudotaktowa	!	!	!	!	!
.	.	4A\	.	.	.	.	.
=13-	=13	=13	=13	=13-	=13	=13-	=13
2.C/	-ba-	2.G/	.	.	.	2.cc\	Sab-
!	!	!	!	!LO:TX:t=P:problem=kreska pseudotaktowa	!	!	!
.	.	.	.	2e\	-ba-	.	.
!LO:TX:t=P:problem=kreska pseudotaktowa	!	!LO:TX:t=P:problem=kreska pseudotaktowa	!	!	!	!LO:TX:t=P:problem=kreska pseudotaktowa	!
4C/	-oth	4G/	-ba-	.	.	4cc\	-ba-
2FF/	.	2A,\	-oth.	2f,\	-oth	2a,\	-oth.
!	!	!LO:TX:t=P:problem=kreska pseudotaktowa	!	!LO:TX:t=P:problem=kreska pseudotaktowa	!	!LO:TX:t=P:problem=kreska pseudotaktowa	!
2F\	Ple-	2f\	Ple-	2a\	Ple-	2cc\	Ple-
=14-	=14	=14	=14	=14	=14	=14	=14
2A\	-ni	2f\	-ni	2a\	-ni	2cc\	-ni
!LO:TX:t=P:problem=kreska pseudotaktowa	!	!LO:TX:t=P:problem=kreska pseudotaktowa	!	!LO:TX:t=P:problem=kreska pseudotaktowa	!	!	!
2c\	sunt	2e\	sunt	2g\	sunt	2cc\	sunt
!	!	!	!	!	!	!LO:TX:t=P:problem=kreska pseudotaktowa	!
2.G\	cae-	1d	cae-	(2g\	cae-	1b-	cae-
!	!	!	!	!LO:TX:t=P:problem=kreska pseudotaktowa	!	!	!
.	.	.	.	2d\)	.	.	.
4F\	.	.	.	.	.	.	.
=15-	=15	=15-	=15	=15	=15	=15	=15
!	!	!	!	!LO:TX:t=P:problem=kreska pseudotaktowa	!	!	!
2E\	.	2e,\	-li	1c	-li	(4cc\	-li
.	.	.	.	.	.	4b-\)	.
!LO:TX:t=P:problem=kreska pseudotaktowa	!	!LO:TX:t=P:problem=kreska pseudotaktowa	!	!	!	!	!
2F\	.	2c\	et	.	.	(4a\	et
.	.	.	.	.	.	4g\)	.
2D,/	-li	2d\	ter-	2r	.	2f/	ter-
!LO:TX:t=P:problem=kreska pseudotaktowa	!	!LO:TX:t=P:problem=kreska pseudotaktowa	!	!LO:TX:t=P:problem=kreska pseudotaktowa	!	!	!
2C/	et	2e\	.	2c/	cae-	2g/	.
=16	=16	=16	=16	=16	=16	=16-	=16
4F\	ter-	2.f\	.	4A/	-li	2c/	-ra
4E\	.	.	.	4B-/	et	.	.
!	!	!	!	!LO:TX:t=P:problem=kreska pseudotaktowa	!	!LO:TX:t=P:problem=kreska pseudotaktowa	!
4D/	.	.	.	2c\	ter-	2r	.
!	!	!LO:TX:t=P:problem=kreska pseudotaktowa	!	!	!	!	!
4C/	.	4e\	.	.	.	.	.
4BB-/	.	2d\	.	2d\	.	2b-\	Ple-
4GG/	.	.	.	.	.	.	.
!LO:TX:t=P:problem=kreska pseudotaktowa	!	!	!	!LO:TX:t=P:problem=kreska pseudotaktowa	!	!LO:TX:t=P:problem=kreska pseudotaktowa	!
2C/	.	1c\	.	2e\	.	2g\	-ni
=17	=17	=17-	=17	=17	=17	=17	=17
2F\	.	.	.	2f\	.	2a\	sunt
!	!	!LO:TX:t=P:problem=kreska pseudotaktowa	!	!LO:TX:t=P:problem=kreska pseudotaktowa	!	!LO:TX:t=P:problem=kreska pseudotaktowa	!
2G\	.	2Bn\	.	2d\	.	2g\	cae-
!	!	!LO:TX:t=P:problem=kreska pseudotaktowa	!	!	!	!	!
2C/	-ra	1c	-ra	2e\	.	2g\	-li
*custos:D	*	*	*	*	*	*	*
!LO:TX:t=P:problem=kreska pseudotaktowa	!	!	!	!	!	!	!
!	!	!	!	!	!	!LO:TX:t=P:problem=kreska pseudotaktowa	!
2r	.	.	.	2f\	-ra	2r	.
!LO:LB:g=original	!	!	!	!	!	!	!
=18	=18	=18	=18	=18-	=18	=18	=18
!	!	!LO:TX:t=P:problem=kreska pseudotaktowa	!	!LO:TX:t=P:problem=kreska pseudotaktowa	!	!	!
2.D/	cae-	1f	glo-	1A	.	2r	.
.	.	.	.	.	.	2a\	Ple-
4C/	.	.	.	.	.	.	.
2BB-/	-li	2d\	-ri-	2r	.	2b-\	-ni
!LO:TX:t=P:problem=kreska pseudotaktowa	!	!LO:TX:t=P:problem=kreska pseudotaktowa	!	!LO:TX:t=P:problem=kreska pseudotaktowa	!	!LO:TX:t=P:problem=kreska pseudotaktowa	!
2GG/	et	2B-\	-a	2g\	glo-	2b-\	sunt
=19	=19	=19	=19	=19	=19	=19	=19
*	*	*	*ij	*	*	*	*
2.AA/	ter-	2.c\	glo-	2e\	-ri-	2.a\	cae-
!	!	!	!	!LO:TX:t=P:problem=kreska pseudotaktowa	!	!	!
.	.	.	.	2c\	-a	.	.
4GG/	.	4B-\	-ri-	.	.	8f/L	.
.	.	.	.	.	.	8g/J	.
*	*	*	*	*	*ij	*	*
!	!	!LO:TX:t=P:problem=kreska pseudotaktowa	!	!LO:TX:t=P:problem=kreska pseudotaktowa	!	!	!
2FF/	-ra	1A	-a	1c	glo-	4a\	.
*	*	*	*Xij	*	*	*	*
.	.	.	.	.	.	4b-\	.
!	!	!	!	!	!	!LO:TX:t=P:problem=kreska pseudotaktowa	!
4F\	et	.	.	.	.	2cc\	.
!LO:TX:t=P:problem=kreska pseudotaktowa	!	!	!	!	!	!	!
4E\	.	.	.	.	.	.	.
=20	=20	=20	=20	=20	=20	=20	=20
(2D\	ter-	1B-	tu-	2f\	-ri-	2f/	.
*	*	*	*	*custos:c	*	*custos:a	*
!	!	!	!	!	!	!LO:TX:t=P:problem=kreska pseudotaktowa	!
!	!	!	!	!LO:TX:t=P:problem=kreska pseudotaktowa	!	!LO:TX:b:t=Vertat	!
2E\)	.	.	.	2e\	-a	2g/	.
*	*	*	*	*	*Xij	*	*
!LO:TX:t=P:problem=kreska pseudotaktowa	!	!LO:TX:t=P:problem=kreska pseudotaktowa	!	!	!	!	!
!	!	!	!	!	!	!LO:PB:g=original	!
!	!	!	!	!LO:LB:g=original	!	!	!
1F,	-ra	1A	.	2c\	glo-	2a,\	-li
!	!	!	!	!LO:TX:t=P:problem=kreska pseudotaktowa	!	!	!
.	.	.	.	2f\	.	2cc\	cae-
!	!	!LO:LB:g=original	!	!	!	!	!
=21	=21	=21	=21	=21	=21	=21-	=21
2.C/	glo-	1G	.	2.e\	.	2g/	-li
!	!	!	!	!	!	!LO:TX:t=P:problem=kreska pseudotaktowa	!
.	.	.	.	.	.	2cc\	et
4C/	-ri-	.	.	4e\	-ri-	.	.
!	!	!	!	!LO:TX:t=P:problem=kreska pseudotaktowa	!	!	!
2.FF/	-a	0F	.	1c	-a	2.cc\	ter-
!LO:TX:t=P:problem=kreska pseudotaktowa	!	!	!	!	!	!	!
4GG/	.	.	.	.	.	4b-\	.
=22	=22	=22-	=22	=22	=22	=22-	=22
*	*	*	*	*	*ij	*	*
2AA/	.	.	.	2.f\	glo-	2a,\	-ra
!	!	!	!	!	!	!LO:TX:t=P:problem=kreska pseudotaktowa	!
2FF/	.	.	.	.	.	2cc\	glo-
!	!	!	!	!LO:TX:t=P:problem=kreska pseudotaktowa	!	!	!
.	.	.	.	4e\	.	.	.
2BB-/	tu-	0.F	-a.	2d\	-ri-	2b-\	-ri-
!LO:TX:t=P:problem=kreska pseudotaktowa	!	!	!	!LO:TX:t=P:problem=kreska pseudotaktowa	!	!	!
2AA/	.	.	.	2f\	-a	2cc\	-a
*	*	*	*	*	*Xij	*	*
=23	=23	=23-	=23	=23	=23	=23-	=23
!LO:TX:t=P:problem=kreska pseudotaktowa	!	!	!	!	!	!	!
[1BB-	.	.	.	1.d	tu-	1.b-X	tu-
!LO:TX:t=P:problem=kreska pseudotaktowa	!	!	!	!	!	!	!
1BB-]	.	.	.	.	.	.	.
.	.	.	.	4c/	.	4a\	.
.	.	.	.	4B-/	.	4g\	.
=24	=24	=24-	=24	=24-	=24	=24-	=24
!	!	!	!	!	!	!LO:N:vis=1	!
0FF;	-a.	0F;	.	0c;	-a.	0a;	-a.
!LO:PB:g=original	!	!	!	!	!	!	!
=25||	=25||	=25||	=25||	=25||	=25||	=25||	=25||
*M3/2	*	*M3/2	*	*M3/2	*	*M3/2	*
!LO:TX:a:t=T.	!	!	!	!LO:TX:t=P:problem=kreska pseudotaktowa	!	!	!
!	!	!	!	!LO:N:vis=1	!	!LO:N:vis=1	!
2F\	O-	2A\	O-	1.r	.	1.r	.
2G\	-san-	2B-\	-san-	.	.	.	.
!LO:TX:t=P:problem=kreska pseudotaktowa	!	!LO:TX:t=P:problem=kreska pseudotaktowa	!	!	!	!	!
2A\	-na	2c\	-na	.	.	.	.
=26	=26	=26	=26	=26	=26	=26-	=26
1B-	in	1d	in	2d\	O-	2f/	O-
.	.	.	.	2e\	-san-	2g/	-san-
!LO:TX:t=P:problem=kreska pseudotaktowa	!	!LO:TX:t=P:problem=kreska pseudotaktowa	!	!LO:TX:t=P:problem=kreska pseudotaktowa	!	!LO:TX:t=P:problem=kreska pseudotaktowa	!
2A\	ex-	2c\	ex-	2f\	-na	2a\	-na
=27	=27	=27	=27	=27	=27	=27	=27
1G	-cel-	1B-	-cel-	2g\	in	1b-	in
.	.	.	.	2e\	.	.	.
!LO:TX:t=P:problem=kreska pseudotaktowa	!	!LO:TX:t=P:problem=kreska pseudotaktowa	!	!LO:TX:t=P:problem=kreska pseudotaktowa	!	!	!
2F\	.	2c\	.	2f\	ex-	2a\	ex-
=28	=28	=28	=28	=28	=28	=28-	=28
2BB-/	.	2d\	-sis	1f	-cel-	2g/	-cel-
!	!	!LO:TX:t=P:problem=kreska pseudotaktowa	!	!	!	!LO:TX:t=P:problem=kreska pseudotaktowa	!
1C	.	1c	.	.	.	1g	-ſis
!	!	!	!	!LO:TX:t=P:problem=kreska pseudotaktowa	!	!	!
.	.	.	.	2e\	.	.	.
=29-	=29	=29	=29	=29	=29	=29	=29
!LO:TX:t=P:problem=kreska pseudotaktowa	!	!	!	!LO:TX:t=P:problem=kreska pseudotaktowa	!	!	!
1.F	-sis.	2F/	O-	1.f	-sis	2a\	O-
.	.	2G/	-ſan-	.	.	2b-\	-ſan-
!	!	!LO:TX:t=P:problem=kreska pseudotaktowa	!	!	!	!LO:TX:t=P:problem=kreska pseudotaktowa	!
.	.	2A\	-na	.	.	2cc\	-na
=30	=30	=30	=30	=30	=30	=30	=30
*	*	*	*	*	*ij	*	*
2BB-/	O-	1B-	in	2d\	O-	1dd	.
2C/	-san-	.	.	2e\	-san-	.	.
!LO:TX:t=P:problem=kreska pseudotaktowa	!	!LO:TX:t=P:problem=kreska pseudotaktowa	!	!LO:TX:t=P:problem=kreska pseudotaktowa	!	!LO:TX:t=P:problem=kreska pseudotaktowa	!
2D/	-na	2A\	ex-	2f\	-na	2cc\	in
=31	=31	=31	=31	=31	=31	=31	=31
1E-X	.	2G/	-cel-	1g	in	2b-\	ex-
.	.	2A\	.	.	.	2cc\	-cel-
!LO:TX:t=P:problem=kreska pseudotaktowa	!	!LO:TX:t=P:problem=kreska pseudotaktowa	!	!	!	!LO:TX:t=P:problem=kreska pseudotaktowa	!
2D\	in	2B-\	.	2f\	ex-	2dd\	.
=32	=32	=32	=32	=32-	=32	=32	=32
2C/	ex-	2c\	-sis	2e-X\	-cel-	2ee-X\	.
1G	-cel-	2c\	.	1g	.	1dd	.
!	!	!LO:TX:t=P:problem=kreska pseudotaktowa	!	!	!	!	!
.	.	2r	.	.	.	.	.
=33-	=33	=33	=33	=33-	=33	=33-	=33
!	!	!	!	!LO:TX:t=P:problem=kreska pseudotaktowa	!	!	!
!LO:TX:t=P:problem=kreska pseudotaktowa	!	!	!	!LO:TX:t=P:problem=♮ above	!	!LO:TX:t=P:problem=kreska pseudotaktowa	!
1.C	-ſis	2C/	O-	1.en	-sis	1.cc	-sis.
*	*	*	*	*	*Xij	*	*
.	.	2D/	-san-	.	.	.	.
.	.	2E/	-na	.	.	.	.
!	!	!	!	!LO:LB:g=original	!	!LO:LB:g=original	!
=34	=34	=34-	=34	=34	=34	=34	=34
*	*ij	*	*	*	*	*	*
!	!	!	!	!LO:TX:t=P:problem=kreska pseudotaktowa	!	!	!
2FF/	O-	1F	in	1.r	.	2a\	O-
2GG/	-san-	.	.	.	.	2b-\	-san-
!LO:TX:t=P:problem=kreska pseudotaktowa	!	!LO:TX:t=P:problem=kreska pseudotaktowa	!	!	!	!LO:TX:t=P:problem=kreska pseudotaktowa	!
2AA/	-na	2E/	ex-	.	.	2cc\	-na
!	!	!LO:LB:g=original	!	!	!	!	!
=35	=35	=35	=35	=35	=35	=35	=35
1BB-	in	2D/	-cel-	2d\	O-	1dd	.
.	.	2D/	-ſis	2e\	-san-	.	.
!LO:TX:t=P:problem=kreska pseudotaktowa	!	!LO:TX:t=P:problem=kreska pseudotaktowa	!	!LO:TX:t=P:problem=kreska pseudotaktowa	!	!LO:TX:t=P:problem=kreska pseudotaktowa	!
2AA/	ex-	2r	.	2f\	-na	2cc\	in
=36	=36	=36	=36	=36	=36	=36	=36
2GG/	-cel-	2G/	O-	1g	in	1b-	ex-
2GG/	-ſis	2A\	-san-	.	.	.	.
*	*Xij	*	*	*	*	*	*
!LO:TX:t=P:problem=kreska pseudotaktowa	!	!LO:TX:t=P:problem=kreska pseudotaktowa	!	!	!	!LO:TX:t=P:problem=kreska pseudotaktowa	!
2r	.	2Bn\	-na	2f\	ex-	2a\	-cel-
=37	=37	=37	=37	=37-	=37	=37	=37
!	!	!	!	!	!	!LO:TX:t=P:problem=kreska pseudotaktowa	!
2C/	O-	1c	in	2en\	-cel-	1.g	-sis
2D\	-san-	.	.	2e\	-ſis	.	.
!LO:TX:t=P:problem=kreska pseudotaktowa	!	!LO:TX:t=P:problem=kreska pseudotaktowa	!	!LO:TX:t=P:problem=kreska pseudotaktowa	!	!	!
2E\	-na	2B-X\	ex-	2r	.	.	.
=38	=38	=38	=38	=38	=38	=38	=38
!	!	!	!	!	!	!LO:TX:t=P:problem=kreska pseudotaktowa	!
1F	in	2A\	-cel-	2c\	O-	1.r	.
.	.	2B-\	.	2d\	-ſan-	.	.
!LO:TX:t=P:problem=kreska pseudotaktowa	!	!LO:TX:t=P:problem=kreska pseudotaktowa	!	!LO:TX:t=P:problem=kreska pseudotaktowa	!	!	!
2En\	ex-	2c\	.	2e\	-na	.	.
!LO:LB:g=original	!	!	!	!	!	!	!
=39	=39	=39	=39	=39	=39	=39	=39
1D	-cel-	1d	.	1f	.	2f/	O-
.	.	.	.	.	.	2g/	-san-
!LO:TX:t=P:problem=kreska pseudotaktowa	!	!	!	!LO:TX:t=P:problem=kreska pseudotaktowa	!	!LO:TX:t=P:problem=kreska pseudotaktowa	!
2C/	.	2A/	-sis	2e\	in	2a\	-na
=40	=40	=40-	=40	=40	=40	=40	=40
!	!	!LO:TX:t=P:problem=kreska pseudotaktowa	!	!	!	!	!
2BB-/	.	1.G	.	2d\	ex-	1b-	in
2C/	.	.	.	2e\	-cel-	.	.
!LO:TX:t=P:problem=kreska pseudotaktowa	!	!	!	!LO:TX:t=P:problem=kreska pseudotaktowa	!	!LO:TX:t=P:problem=kreska pseudotaktowa	!
2D/	.	.	.	2f#X\	.	2a\	ex-
=41	=41	=41	=41	=41	=41	=41	=41
!LO:TX:t=P:problem=kreska pseudotaktowa	!	!	!	!	!	!	!
1.GG	-sis	2G/	-O-	1g	.	2bn\	-cel-
.	.	2A\	-ſan-	.	.	2cc\	.
!	!	!LO:TX:t=P:problem=kreska pseudotaktowa	!	!LO:TX:t=P:problem=kreska pseudotaktowa	!	!LO:TX:t=P:problem=kreska pseudotaktowa	!
.	.	2Bn\	-na	2fn\	.	2dd\	.
=42	=42	=42	=42	=42	=42	=42	=42
2C/	O-	2.c\	in	1e	.	2cc,\	-sis
2D\	-san-	.	.	.	.	2cc\	in
.	.	4B-\	.	.	.	.	.
!LO:TX:t=P:problem=kreska pseudotaktowa	!	!	!	!LO:TX:t=P:problem=kreska pseudotaktowa	!	!	!
2E\	-na	4A/	.	2d\	-sis.	2b-X\	ex-
!	!	!LO:TX:t=P:problem=kreska pseudotaktowa	!	!	!	!	!
.	.	4G/	.	.	.	.	.
=43	=43	=43	=43	=43	=43	=43-	=43
*	*ij	*	*	*	*	*	*
!	!	!	!	!LO:TX:t=P:problem=kreska pseudotaktowa	!	!	!
2FF/	O-	1F	.	1.c	.	1a	-cel-
2GG/	-san-	.	.	.	.	.	.
!LO:TX:t=P:problem=kreska pseudotaktowa	!	!LO:TX:t=P:problem=kreska pseudotaktowa	!	!	!	!LO:TX:t=P:problem=kreska pseudotaktowa	!
2AA/	-na	2E/	ex-	.	.	2g/	.
*	*Xij	*	*	*	*	*	*
=44	=44	=44	=44	=44	=44	=44	=44
2BB-/	in	1D	-cel-	2d\	in	1f	-ſis
2C/	.	.	.	2e\	.	.	.
!LO:TX:t=P:problem=kreska pseudotaktowa	!	!LO:TX:t=P:problem=kreska pseudotaktowa	!	!LO:TX:t=P:problem=kreska pseudotaktowa	!	!LO:TX:t=P:problem=kreska pseudotaktowa	!
2D/	ex-	2d\	.	2f\	ex-	2b-\	in
=45	=45	=45	=45	=45	=45	=45	=45
2BB-/	-cel-	2d\	.	2g\	-cel-	2b-\	ex-
!	!	!LO:TX:t=P:problem=kreska pseudotaktowa	!	!	!	!	!
1C	.	1c	.	2f\	.	2a\	.
.	.	.	.	2e\	.	2g/	-cel-
=46-	=46	=46	=46	=46-	=46	=46	=46
!LO:N:vis=0	!	!LO:N:vis=0	!	!LO:N:vis=0.	!	!	!
1.F;	-sis.	1.c;	-sis.	1.f;	-sis.	1.a;	-ſis.
!	!	!	!	!LO:LB:g=original	!	!	!
=47||	=47||	=47||	=47||	=47||	=47||	=47||	=47||
*M2/1	*	*M2/1	*	*M2/1	*	*M2/1	*
*met(c|)	*	*met(c|)	*	*met(c|)	*	*met(c|)	*
!LO:TX:a:t=Osanna da Capo	!	!	!	!	!	!	!
!LO:TX:a:t=Benedictus Tacet.	!	!LO:TX:t=P:problem=kreska pseudotaktowa	!	!	!	!LO:TX:t=P:problem=kreska pseudotaktowa	!
0ryy	.	[<1f	Be-	2r	.	1a	Be-
!	!	!	!	!LO:TX:t=P:problem=kreska pseudotaktowa	!	!	!
.	.	.	.	2f\	Be-	.	.
!	!	!	!	!LO:TX:t=P:problem=kreska pseudotaktowa	!	!	!
.	.	2f]	.	1g	-ne-	2bn\	-ne-
!	!	!LO:TX:t=P:problem=kreska pseudotaktowa	!	!	!	!	!
.	.	2e\	-ne-	.	.	1cc\	.
=48	=48	=48	=48	=48	=48	=48-	=48
0ryy	.	1d	-di-	2f\	-di-	.	.
!	!	!	!	!	!	!LO:TX:t=P:problem=kreska pseudotaktowa	!
.	.	.	.	4e\	.	2bn\	-di-
!	!	!	!	!LO:TX:t=P:problem=kreska pseudotaktowa	!	!	!
.	.	.	.	4d\	.	.	.
.	.	2c,\	-ctus	2e\	.	2cc\	-ctus
!	!	!LO:TX:t=P:problem=kreska pseudotaktowa	!	!LO:TX:t=P:problem=kreska pseudotaktowa	!	!LO:TX:t=P:problem=kreska pseudotaktowa	!
.	.	2A\	qui	2f\	-ctus	2cc\	qui
=49	=49	=49	=49	=49	=49	=49	=49
0ryy	.	4B-\	ve-	4d\	qui	2b-X\	ve-
.	.	4c\	.	4e\	.	.	.
.	.	4d\	.	4f\	.	4a/	.
!	!	!LO:TX:t=P:problem=kreska pseudotaktowa	!	!LO:TX:t=P:problem=kreska pseudotaktowa	!	!LO:TX:t=P:problem=kreska pseudotaktowa	!
.	.	4e\	.	4g\	.	4g/	.
.	.	2f\	.	4f\	ve-	4a\	.
.	.	.	.	4g\	.	4b-\	.
!	!	!LO:TX:t=P:problem=kreska pseudotaktowa	!	!	!	!	!
.	.	2e\	.	4a\	.	1cc\	.
!	!	!	!	!LO:TX:t=P:problem=kreska pseudotaktowa	!	!	!
.	.	.	.	4g\	.	.	.
=50	=50	=50	=50	=50	=50	=50-	=50
!	!	!LO:TX:t=P:problem=kreska pseudotaktowa	!	!	!	!	!
0ryy	.	1d	.	2f\	.	.	.
!	!	!	!	!	!	!LO:TX:t=P:problem=kreska pseudotaktowa	!
.	.	.	.	4e\	.	2bn\	.
!	!	!	!	!LO:TX:t=P:problem=kreska pseudotaktowa	!	!	!
.	.	.	.	4d\	.	.	.
.	.	2c,\	-nit	2e\	-nit	2cc\	-nit
!	!	!LO:TX:t=P:problem=kreska pseudotaktowa	!	!LO:TX:t=P:problem=kreska pseudotaktowa	!	!	!
.	.	2c\	in	2e\	in	2cc\	in
=51	=51	=51	=51	=51	=51	=51-	=51
0ryy	.	2d\	No-	2f\	No-	2b-X\	No-
!	!	!LO:TX:t=P:problem=kreska pseudotaktowa	!	!LO:TX:t=P:problem=kreska pseudotaktowa	!	!LO:TX:t=P:problem=kreska pseudotaktowa	!
.	.	2e\	-mi-	2g\	-mi-	2b-\	-mi-
.	.	2f\	-ne	2c/	-ne	2a\	-ne
*	*	*	*ij	*	*ij	*	*
!	!	!LO:TX:t=P:problem=kreska pseudotaktowa	!	!LO:TX:t=P:problem=kreska pseudotaktowa	!	!LO:TX:t=P:problem=kreska pseudotaktowa	!
.	.	2F/	in	2f\	in	2a\	Do-
=52	=52	=52	=52	=52	=52	=52	=52
0ryy	.	2G/	No-	2e-X\	No-	2b-\	-mi-
!	!	!LO:TX:t=P:problem=kreska pseudotaktowa	!	!LO:TX:t=P:problem=kreska pseudotaktowa	!	!LO:TX:t=P:problem=kreska pseudotaktowa	!
.	.	2A\	-mi-	2e-\	-mi-	2cc\	-ni
!	!	!	!	!	!	!LO:TX:t=P:problem=kreska pseudotaktowa	!
.	.	(2.B-\	-ne	2.d\	-ne	1f	Do-
*	*	*	*Xij	*	*Xij	*	*
!	!	!LO:TX:t=P:problem=kreska pseudotaktowa	!	!LO:TX:t=P:problem=kreska pseudotaktowa	!	!	!
.	.	4A\)	.	4c/	Do-	.	.
=53	=53	=53	=53	=53	=53	=53	=53
0ryy	.	2G/	Do-	4B-/	.	4g\	.
.	.	.	.	4c/	.	4a\	.
.	.	4F/	.	4d/	.	2.b-\	.
!	!	!LO:TX:t=P:problem=kreska pseudotaktowa	!	!LO:TX:t=P:problem=kreska pseudotaktowa	!	!	!
.	.	4E-X/	.	4e-X/	.	.	.
.	.	2.F/	.	2.c\	-mi-	.	.
.	.	.	.	.	.	8a\L	.
.	.	.	.	.	.	8g\J	.
.	.	.	.	.	.	4a\	.
!	!	!LO:TX:t=P:problem=kreska pseudotaktowa	!	!LO:TX:t=P:problem=kreska pseudotaktowa	!	!LO:TX:t=P:problem=kreska pseudotaktowa	!
.	.	4F/	-mi-	4c\	-ni	4a\	-mi-
=54	=54	=54	=54	=54	=54	=54	=54
!	!	!LO:TX:t=P:problem=kreska pseudotaktowa	!	!	!	!	!
0ryy	.	1B-	-ni	2d,\	.	2b-,\	-ni
!	!	!	!	!LO:TX:t=P:problem=kreska pseudotaktowa	!	!	!
.	.	.	.	2d\	in	2dd\	in
!	!	!LO:LB:g=original	!	!LO:LB:g=original	!	!	!
!	!	!LO:TX:t=P:problem=kreska pseudotaktowa	!	!	!	!	!
.	.	1r	.	2en\	No-	2cc\	No-
!	!	!	!	!LO:TX:t=P:problem=kreska pseudotaktowa	!	!LO:TX:t=P:problem=kreska pseudotaktowa	!
.	.	.	.	2f#X\	-mi-	2cc\	-mi-
!	!	!	!	!	!	!LO:LB:g=original	!
=55	=55	=55	=55	=55	=55	=55	=55
0ryy	.	2r	.	2g,\	-ne	2bn,\	-ne
*	*	*	*	*	*	*	*ij
!	!	!LO:TX:t=P:problem=kreska pseudotaktowa	!	!LO:TX:t=P:problem=kreska pseudotaktowa	!	!LO:TX:t=P:problem=kreska pseudotaktowa	!
.	.	2G/	in	2g\	in	2b\	in
.	.	2A\	No-	1fn	No-	2cc\	No-
!	!	!LO:TX:t=P:problem=kreska pseudotaktowa	!	!	!	!LO:TX:t=P:problem=kreska pseudotaktowa	!
.	.	2Bn\	-mi-	.	.	2dd\	-mi-
=56	=56	=56	=56	=56-	=56	=56	=56
0ryy	.	1.c	-ne	2e\	-mi-	2g,/	-ne
*	*	*	*	*	*	*	*Xij
!	!	!	!	!LO:TX:t=P:problem=kreska pseudotaktowa	!	!LO:TX:t=P:problem=kreska pseudotaktowa	!
.	.	.	.	2c\	-ne	2e/	in
.	.	.	.	2d\	Do-	2f/	No-
!	!	!LO:TX:t=P:problem=kreska pseudotaktowa	!	!LO:TX:t=P:problem=kreska pseudotaktowa	!	!LO:TX:t=P:problem=kreska pseudotaktowa	!
.	.	2B-\	.	2e\	.	2g\	-mi-
=57	=57	=57	=57	=57	=57	=57	=57
0ryy	.	2A/	Do-	4f\	.	4a\	-ne
.	.	.	.	4c\	.	4b-\	.
!	!	!	!	!LO:TX:t=P:problem=kreska pseudotaktowa	!	!	!
.	.	4G/	.	2f\	.	2.cc\	.
!	!	!LO:TX:t=P:problem=kreska pseudotaktowa	!	!	!	!	!
.	.	4F/	.	.	.	.	.
.	.	2E/	.	2g\	.	.	.
.	.	.	.	.	.	4b-\	.
!	!	!LO:TX:t=P:problem=kreska pseudotaktowa	!	!	!	!LO:TX:t=P:problem=kreska pseudotaktowa	!
.	.	2F/	.	2.f\	.	2a\	Do-
=58	=58	=58	=58	=58-	=58	=58	=58
0ryy	.	2c\	-mi-	.	.	2.g/	-mi-
.	.	.	.	8e\L	.	.	.
.	.	.	.	8d\J	.	.	.
!	!	!LO:TX:t=P:problem=kreska pseudotaktowa	!	!LO:TX:t=P:problem=kreska pseudotaktowa	!	!	!
.	.	2C/	-ni	2e\	-mi-	.	.
!	!	!	!	!	!	!LO:TX:t=P:problem=kreska pseudotaktowa	!
.	.	.	.	.	.	4g/	-ni
.	.	2F,/	.	2f,\	-ni	2a,\	.
!	!	!LO:TX:t=P:problem=kreska pseudotaktowa	!	!	!	!LO:TX:t=P:problem=kreska pseudotaktowa	!
.	.	2F/	in	2f\	in	2a\	in
=59	=59	=59	=59	=59-	=59	=59	=59
0ryy	.	2.G/	No-	2e-X\	No-	4.b-\	No-
.	.	.	.	.	.	8b-\	-mi-
!	!	!	!	!LO:TX:t=P:problem=kreska pseudotaktowa	!	!LO:TX:t=P:problem=kreska pseudotaktowa	!
.	.	.	.	2e-\	-mi-	2cc\	-ne
.	.	4A/	.	.	.	.	.
.	.	1.B-	-mi-	2.d\	-ne	1.dd	.
!	!	!	!	!LO:TX:t=P:problem=kreska pseudotaktowa	!	!	!
.	.	.	.	4e-\	.	.	.
=60	=60	=60-	=60	=60	=60	=60-	=60
0ryy	.	.	.	4f\	.	.	.
.	.	.	.	4g\	.	.	.
!	!	!LO:TX:t=P:problem=kreska pseudotaktowa	!	!	!	!LO:TX:t=P:problem=kreska pseudotaktowa	!
.	.	2A/	-ne	4a\	.	2cc\	Do-
!	!	!	!	!LO:TX:t=P:problem=kreska pseudotaktowa	!	!	!
.	.	.	.	[4f\	.	.	.
!	!	!	!	!	!	!LO:TX:a:t=P:problem=♭ above	!
.	.	1.G	Do-	2f\]	.	1.b-X	.
.	.	.	.	4e\	Do-	.	.
.	.	.	.	4d\	.	.	.
=61	=61	=61-	=61	=61-	=61	=61-	=61
0ryy	.	.	.	2.e\	-mi-	.	.
.	.	4F/	-mi-	.	.	2cc\	-mi-
.	.	4E/	-ni.	4e\	-ni.	.	.
!	!	!LO:TX:a:t=Osanna Da Cappo.	!	!LO:TX:a:t=Osanna da Cappo.	!	!LO:TX:a:t=Osanna da Cappo	!
!	!	!LO:N:vis=0	!	!LO:N:vis=0	!	!LO:N:vis=0	!
.	.	1F;	.	1f;<	.	1cc;	-ni.
==	==	==	==	==	==	==	==
*-	*-	*-	*-	*-	*-	*-	*-
!!!system-decoration: [(s1,s2,s3,s4)]
!!!RDF**kern: > = above
!!!RDF**kern: < = below
!!!ENC: Kamil Watkowski
!!!END: 2021-08-06
